germany/municipalities/07135072.svg

<?xml version="1.0" encoding="UTF-8" standalone="no"?>
<!-- Created with Inkscape (http://www.inkscape.org/) -->

<svg
   xmlns:dc="http://purl.org/dc/elements/1.1/"
   xmlns:cc="http://creativecommons.org/ns#"
   xmlns:rdf="http://www.w3.org/1999/02/22-rdf-syntax-ns#"
   xmlns:svg="http://www.w3.org/2000/svg"
   xmlns="http://www.w3.org/2000/svg"
   xmlns:sodipodi="http://sodipodi.sourceforge.net/DTD/sodipodi-0.dtd"
   xmlns:inkscape="http://www.inkscape.org/namespaces/inkscape"
   width="638.375"
   height="741.78125"
   id="svg2"
   version="1.1"
   inkscape:version="0.48.4 r9939"
   sodipodi:docname="DEU Pommern (Mosel) COA.svg">
  <defs
     id="defs4">
    <inkscape:path-effect
       effect="spiro"
       id="path-effect4126"
       is_visible="true" />
    <inkscape:path-effect
       effect="spiro"
       id="path-effect3885"
       is_visible="true" />
  </defs>
  <sodipodi:namedview
     id="base"
     pagecolor="#ffffff"
     bordercolor="#666666"
     borderopacity="1.0"
     inkscape:pageopacity="0.0"
     inkscape:pageshadow="2"
     inkscape:zoom="1.1310612"
     inkscape:cx="319.1875"
     inkscape:cy="370.88781"
     inkscape:document-units="px"
     inkscape:current-layer="layer1"
     showgrid="false"
     fit-margin-top="0"
     fit-margin-left="0"
     fit-margin-right="0"
     fit-margin-bottom="0"
     inkscape:window-width="1920"
     inkscape:window-height="1054"
     inkscape:window-x="-4"
     inkscape:window-y="-4"
     inkscape:window-maximized="1"
     inkscape:snap-midpoints="true"
     inkscape:snap-smooth-nodes="true"
     inkscape:object-nodes="true"
     inkscape:snap-nodes="true" />
  <metadata
     id="metadata7">
    <rdf:RDF>
      <cc:Work
         rdf:about="">
        <dc:format>image/svg+xml</dc:format>
        <dc:type
           rdf:resource="http://purl.org/dc/dcmitype/StillImage" />
        <dc:title></dc:title>
      </cc:Work>
    </rdf:RDF>
  </metadata>
  <g
     inkscape:label="Ebene 1"
     inkscape:groupmode="layer"
     id="layer1"
     transform="translate(-30.8125,-161.46875)">
    <path
       style="fill:#ffffff;fill-opacity:1;fill-rule:evenodd;stroke:none"
       inkscape:connector-curvature="0"
       d="m 663.65517,166.97786 -3.18164,416.62443 C 653.53077,758.8521 516.35543,897.64839 349.9999,897.74651 183.7942,897.53178 46.567562,758.68531 39.52644,583.60229 L 36.344834,166.97786 H 349.99244 z"
       id="path10563-0-6-7-3-4"
       sodipodi:nodetypes="ccccccc" />
    <path
       style="fill:#ff0000;stroke:#000000;stroke-width:5;stroke-linecap:round;stroke-linejoin:round;stroke-miterlimit:4;stroke-opacity:1;stroke-dasharray:none;stroke-dashoffset:3.11810971000000010;fill-opacity:1"
       d="M 5.53125 5.5 L 5.5625 7.8125 L 9.4375 7.8125 L 9.4375 44.28125 L 9.4375 49.3125 L 9.4375 95.78125 L 55.96875 95.78125 L 60.9375 95.78125 L 97.4375 95.78125 L 97.4375 137.28125 L 97.4375 183.75 L 97.4375 186.28125 L 143.9375 186.28125 L 185.40625 186.28125 L 185.40625 227.8125 L 185.40625 274.28125 L 231.90625 274.28125 L 236.90625 274.28125 L 273.40625 274.28125 L 273.40625 315.78125 L 273.40625 362.25 L 319.90625 362.25 L 324.90625 362.25 L 361.375 362.25 L 361.375 403.78125 L 361.375 450.25 L 412.875 450.25 L 412.875 403.78125 L 412.875 362.25 L 412.875 357.25 L 412.875 310.75 L 366.40625 310.75 L 361.375 310.75 L 324.90625 310.75 L 324.90625 274.28125 L 324.90625 269.28125 L 324.90625 222.78125 L 278.4375 222.78125 L 273.40625 222.78125 L 236.90625 222.78125 L 236.90625 186.28125 L 236.90625 181.28125 L 236.90625 134.78125 L 190.4375 134.78125 L 185.40625 134.78125 L 148.9375 134.78125 L 148.9375 95.78125 L 148.9375 90.78125 L 148.9375 44.28125 L 102.46875 44.28125 L 97.4375 44.28125 L 60.9375 44.28125 L 60.9375 7.8125 L 60.9375 5.5 L 5.53125 5.5 z M 97.4375 186.28125 L 41.5625 186.28125 L 41.5625 242.15625 L 97.4375 242.15625 L 97.4375 186.28125 z M 212.3125 45.96875 L 212.3125 101.84375 L 268.1875 101.84375 L 268.1875 45.96875 L 212.3125 45.96875 z M 333.375 45.96875 L 333.375 101.84375 L 389.25 101.84375 L 389.25 45.96875 L 333.375 45.96875 z M 454.40625 45.96875 L 454.40625 101.84375 L 510.28125 101.84375 L 510.28125 45.96875 L 454.40625 45.96875 z M 397.4375 139 L 397.4375 194.90625 L 453.34375 194.90625 L 453.34375 139 L 397.4375 139 z M 67.03125 307.65625 L 67.03125 363.53125 L 122.90625 363.53125 L 122.90625 307.65625 L 67.03125 307.65625 z M 178.15625 307.65625 L 178.15625 363.53125 L 234.03125 363.53125 L 234.03125 307.65625 L 178.15625 307.65625 z M 178.15625 407.6875 L 178.15625 463.5625 L 234.03125 463.5625 L 234.03125 407.6875 L 178.15625 407.6875 z "
       transform="translate(30.8125,161.46875)"
       id="rect4130-5" />
    <path
       inkscape:connector-curvature="0"
       style="fill:#ff0000;stroke:#000000;stroke-width:11;stroke-linecap:round;stroke-linejoin:round;stroke-miterlimit:4;stroke-opacity:1;stroke-dasharray:none;fill-opacity:1"
       d="M 663.65027,166.97156 144.24402,815.12781 c 54.94906,51.3455 127.09363,82.52338 205.75,82.625 166.35553,-0.0981 303.52599,-138.90644 310.46875,-314.15625 l 3.1875,-416.625 z"
       id="path3883-4" />
    <path
       style="fill:none;stroke:#000000;stroke-width:10.99999905;stroke-opacity:1"
       inkscape:connector-curvature="0"
       d="m 663.65517,166.97786 -3.18164,416.62443 C 653.53077,758.8521 516.35543,897.64839 349.9999,897.74651 183.7942,897.53178 46.567559,758.68531 39.526441,583.60229 L 36.344835,166.97786 H 349.99243 z"
       id="path10563-0-6-7-3"
       sodipodi:nodetypes="ccccccc" />
    <path
       inkscape:connector-curvature="0"
       style="fill:#ffd700;stroke:#000000;stroke-width:5.00000047999999970;stroke-linecap:round;stroke-linejoin:round;stroke-miterlimit:4;stroke-opacity:1;stroke-dasharray:none;stroke-dashoffset:3.11810971000000010;fill-opacity:1"
       d="m 519.68152,500.53125 c -47.67087,0 -86.3125,38.64163 -86.3125,86.3125 0,47.67087 38.64163,86.3125 86.3125,86.3125 47.67087,0 86.3125,-38.64163 86.3125,-86.3125 0,-47.67087 -38.64163,-86.3125 -86.3125,-86.3125 z m 0,18.21875 c 37.60849,0 68.09375,30.48526 68.09375,68.09375 0,37.60849 -30.48526,68.09375 -68.09375,68.09375 -37.60849,0 -68.09375,-30.48526 -68.09375,-68.09375 0,-37.60849 30.48526,-68.09375 68.09375,-68.09375 z"
       id="path4001-1" />
    <path
       style="fill:#ffd700;stroke:#000000;stroke-width:5.00000047999999970;stroke-linecap:round;stroke-linejoin:round;stroke-miterlimit:4;stroke-opacity:1;stroke-dasharray:none;stroke-dashoffset:3.11810971000000010;fill-opacity:1"
       d="M 421 430.59375 C 421.49142 437.05314 422.86175 443.26473 425.03125 449.09375 C 459.66605 452.29222 486.78125 481.43621 486.78125 516.90625 C 486.78125 554.51474 456.29599 585 418.6875 585 C 381.07901 585 350.59375 554.51474 350.59375 516.90625 C 350.59375 483.59161 374.52096 455.86536 406.125 449.96875 C 404.41886 444.22388 403.28598 438.23971 402.8125 432.0625 C 362.72894 439.51769 332.375 474.66126 332.375 516.90625 C 332.375 564.57712 371.01663 603.21875 418.6875 603.21875 C 466.35837 603.21875 505 564.57712 505 516.90625 C 505 470.01165 467.5976 431.82402 421 430.59375 z "
       transform="translate(30.8125,161.46875)"
       id="path4001-2-6" />
  </g>
</svg>

<svg xmlns="http://www.w3.org/2000/svg" width="638.375" height="741.781"><path style="fill:#fff;fill-opacity:1;fill-rule:evenodd;stroke:none" d="m663.655 166.978-3.181 416.624C653.53 758.852 516.355 897.648 350 897.747c-166.206-.215-303.432-139.062-310.474-314.145l-3.181-416.624h313.647z" transform="translate(-30.813 -161.469)"/><path style="fill:red;stroke:#000;stroke-width:5;stroke-linecap:round;stroke-linejoin:round;stroke-miterlimit:4;stroke-opacity:1;stroke-dasharray:none;stroke-dashoffset:3.1181097100000001;fill-opacity:1" d="m5.531 5.5.032 2.313h3.875V95.78h88v90.5h87.968v88.001h88v87.968h87.969v88h51.5v-139.5h-87.969v-87.969h-87.999v-88h-87.97v-90.5H60.939V5.5H5.53zm91.906 180.781H41.563v55.875h55.874v-55.875zM212.314 45.97v55.875h55.875V45.969h-55.875zm121.062 0v55.875h55.875V45.969h-55.875zm121.031 0v55.875h55.875V45.969h-55.875zM397.437 139v55.906h55.907V139h-55.906zM67.031 307.656v55.875h55.875v-55.875H67.031zm111.125 0v55.875h55.875v-55.875h-55.875zm0 100.031v55.875h55.875v-55.875h-55.875z"/><path style="fill:red;stroke:#000;stroke-width:11;stroke-linecap:round;stroke-linejoin:round;stroke-miterlimit:4;stroke-opacity:1;stroke-dasharray:none;fill-opacity:1" d="M663.65 166.972 144.244 815.128c54.95 51.345 127.094 82.523 205.75 82.625 166.356-.098 303.526-138.907 310.469-314.156l3.187-416.625z" transform="translate(-30.813 -161.469)"/><path style="fill:none;stroke:#000;stroke-width:10.99999905;stroke-opacity:1" d="m663.655 166.978-3.181 416.624C653.53 758.852 516.355 897.648 350 897.747c-166.206-.215-303.432-139.062-310.474-314.145l-3.181-416.624h313.647z" transform="translate(-30.813 -161.469)"/><path style="fill:gold;stroke:#000;stroke-width:5.0000004799999997;stroke-linecap:round;stroke-linejoin:round;stroke-miterlimit:4;stroke-opacity:1;stroke-dasharray:none;stroke-dashoffset:3.1181097100000001;fill-opacity:1" d="M519.682 500.531c-47.671 0-86.313 38.642-86.313 86.313 0 47.67 38.642 86.312 86.313 86.312 47.67 0 86.312-38.641 86.312-86.312s-38.642-86.313-86.312-86.313zm0 18.219c37.608 0 68.093 30.485 68.093 68.094 0 37.608-30.485 68.093-68.093 68.093-37.609 0-68.094-30.485-68.094-68.093 0-37.609 30.485-68.094 68.094-68.094z" transform="translate(-30.813 -161.469)"/><path style="fill:gold;stroke:#000;stroke-width:5.0000004799999997;stroke-linecap:round;stroke-linejoin:round;stroke-miterlimit:4;stroke-opacity:1;stroke-dasharray:none;stroke-dashoffset:3.1181097100000001;fill-opacity:1" d="M421 430.594c.491 6.46 1.862 12.67 4.031 18.5 34.635 3.198 61.75 32.342 61.75 67.812 0 37.609-30.485 68.094-68.094 68.094-37.608 0-68.093-30.485-68.093-68.094 0-33.314 23.927-61.04 55.531-66.937a85.874 85.874 0 0 1-3.313-17.906c-40.083 7.455-70.437 42.598-70.437 84.843 0 47.671 38.642 86.313 86.313 86.313 47.67 0 86.312-38.642 86.312-86.313 0-46.894-37.402-85.082-84-86.312z"/></svg>
